X: 1166
T: Mazurka de Lapleau
B: kameruka bush dance
B: ralph
M:3/4
R: Mazurka
Q: 1/4=100
K:G
V:1 
DG|:"G"B2BdBG| B2BdBG|"D7" A2AcBA| "G"B2G2 DG|
"G"B2BdBG| B2BdBG|"D7" A2AcBA| "G"G4 dB:|
|: "G"GDGBdB| "D7"c2A2 cA| FDFAcA| "G"B2G2 dB|
GDGBdB| "D7"c2A2 cA| FDFAcA| "G"G6:|
% abcbook-tune_id 6343f1ed1b38fd878744f42b


% abcbook-boost 0
% abcbook-tablature 
% abcbook-transpose 
% abcbook-lastupdated 1665484481924
% abcbook-soundfonts 
% abcbook-repeats 3
% Rhythm Mazurka
% Titles One title
% Transcriptions Only 1 transcription
% Mode major
% Key G
% Time_signature 3/4
% Has_accompaniment_chords No chords

